X:78
%%scale 0.6
M:4/4
K:Gmaj
|:D2|G2BA GEEG|DGBG cAA2|G2BA GEEG|DGGF G3:|
|:B|d2^cd BGGB|ecAc BGAB|d2^cd Bdef|gedc BGAB|dGBG EGEG|DGBG cAA2|G2BA GEEG|DGGF G3:|
